X:173
%%etbk:tnset id:56,pos:4,rep:3
%%etbk:site1 http://www.thesession.org/tunes/display/222
%%etbk:color #ffffcc
T: Man Of The House, The
Z: Piano Box Version by Martin Fleischmann
H: Created 2013-02-19 /  Last Modified 2013-02-19
M: 4/4
L: 1/8
R: reel
K: Edor
|: "em"!1!E2!5!BE !3!GABG | !1!E2BE "D"!2!FD!4!A!2!F | "em"!1!E2!5!BE !3!G!4!A!2!Bc |1 "bm"!4!d!2!B{d}B!1!A "em"!5!B!1!EE!2!D:|2 "bm"!4!d!2!B{d}B!1!A "em"!5!B!1!EE2 ||
 "em"!2!e2ge "D"!3!fgaf | "em"!4!gfe!1!d {g}!2!e!1!d!2!B!1!d | !2!e2!4!ge "D"!3!fgaf | "em"!4!gfe!1!d !2!B!5!e!2!e2 |
"em"!2!efge "D"!3!fgaf | "em"!4!gfed {g}!2!e!1!d!2!B!1!d | !5!bg!4!a!2!f !4!gfe!1!d | !5!e!2!B{d}B!1!A !1!B!1!E !3!(3E!2!E!1!E ||






